!!!COM: Bach, Johann Sebastian
!!!CDT: 1685/3//-1750/7/28/
!!!OTL@@DE: Was frag' ich nach der Welt
!!!AGN: 4-Part Chorale
!!!SCT: BH 255
!!!SCT: BWV 64
**harm	**root	**kern	**kern	**kern	**kern
!	!	!bass	!tenor	!alto	!soprno
*	*Iorgan	*Iorgan	*Iorgan	*Iorgan	*Iorgan
*M4/4	*M4/4	*M4/4	*M4/4	*M4/4	*M4/4
*met(c)	*met(c)	*met(c)	*met(c)	*met(c)	*met(c)
*MM60	*MM60	*MM60	*MM60	*MM60	*MM60
*k[f#c#g#d#]	*k[f#c#g#d#]	*k[f#c#g#d#]	*k[f#c#g#d#]	*k[f#c#g#d#]	*k[f#c#g#d#]
*E:	*E:	*E:	*E:	*E:	*E:
Vb	4AA	4D#	4B	4f#	4b
=1	=1	=1	=1	=1	=1
I	4DD	8E	4B	4e	4g#
.	.	8D#	.	.	.
I	4DD	8E	4B	8g#	4e
.	.	8F#	.	8f#	.
Ib	4DD	8G#	4B	4e	4b
.	.	8F#	.	.	.
Ib	4DD	8G#	4e	8b	4b
.	.	8E	.	8g#	.
=2	=2	=2	=2	=2	=2
IV;	2.GG;	2.A;	2.e;	2.a;	2.cc#;
IV	4GG	4AA	4A	4e	4cc#
=3	=3	=3	=3	=3	=3
V7	4AA	8BB	4.A	8d#	4f#
.	.	8AA	.	8e	.
V7	4AA	8BB	.	8d#	4f#
.	.	8C#	8G#	8c#	.
Vb	4AA	8D#	4F#	4B	4b
.	.	8C#	.	.	.
V7b	4AA	8D#	4B	4f#	4a
.	.	8BB	.	.	.
=4	=4	=4	=4	=4	=4
I	4DD	4E	4B	4e	4g#
I;	4DD;	4E;	4G#;	4B;	4e;
r	4r	4r	4r	4r	4r
Ib	4DD	4G#	4B	4e	4b
=5	=5	=5	=5	=5	=5
IV	4GG	4A	8A	4e	4cc#
.	.	.	8B	.	.
ii	4EE	4F#	4c#	4a	4cc#
Ic	4DD	4B	8d#	4g#	4b
.	.	.	8e	.	.
V7	4AA	4BB	8e	4f#	4a
.	.	.	8d#	.	.
=6	=6	=6	=6	=6	=6
I;	2.DD;	2.E;	2.e;	2.B;	2.g#;
V	4AA	4BB	4d#	4d#	4f#
=7	=7	=7	=7	=7	=7
I	4DD	8E	4B	4e	4g#
.	.	8D#	.	.	.
V7d/V	4EE	8E	4c#	4f#	4a#
.	.	8C#	.	.	.
Vb	4.AA	8D#	4.B	4.f#	4.b
.	.	8C#	.	.	.
.	.	8D#	.	.	.
vib	8BB	8E	8e	8g#	8cc#
=8	=8	=8	=8	=8	=8
V/V	2EE	4F#	2c#	2f#	2a#
.	.	4FF#	.	.	.
V;	4AA;	4BB;	4d#;	4f#;	4b;
V	4AA	4BB	4d#	4f#	4b
!!linebreak: 2
=9	=9	=9	=9	=9	=9
I	4DD	8E	4e	8g#	4b
.	.	8D#	.	8f#	.
I	4DD	8E	4e	8g#	4b
.	.	8F#	.	8a	.
Ib	4DD	8G#	4e	8b	4ee
.	.	8F#	.	8a	.
I7b	4DD	8G#	4e	8b	4dd
.	.	8E	.	8g#	.
=10	=10	=10	=10	=10	=10
IV;	2.GG;	2.A;	2.e;	2.a;	2.cc#;
Vb/II	4BB	4E#	8c#	4g#	4cc#
.	.	.	8B	.	.
=11	=11	=11	=11	=11	=11
II	4EE	8F#	8A#	4f#	4cc#
.	.	8E#	8G#	.	.
II	4EE	8F#	8A#	4f#	4cc#
.	.	8G#	8B	.	.
IIb	4EE	8A#	8c#	4f#	4ff#
.	.	8G#	8B	.	.
II7b	4EE	8A#	8c#	4f#	4ee
.	.	8F#	8A#	.	.
=12	=12	=12	=12	=12	=12
V;	2.AA;	2.B;	2.B;	2.f#;	2.dd#
Ib	4DD	4G#	4e	4e	4b
=13	=13	=13	=13	=13	=13
IV	4GG	8A	4e	4a	4cc#
.	.	8B	.	.	.
Ib	4DD	8A	4e	4b	4b
.	.	8G#	.	.	.
IV	4GG	8A	4e	4a	4cc#
.	.	8G#	.	.	.
viioD7c/vi	4AA#	8A	4f#	8cc#	4dd#
.	.	8F#	.	8b#	.
=14	=14	=14	=14	=14	=14
vi;	2.BB;	2.c#;	2.g#;	2.cc#;	2.ee;
Vb	4AA	4D#	4f#	8b	4b
.	.	.	.	8a	.
=15	=15	=15	=15	=15	=15
I	4DD	8E	4e	4g#	4b
.	.	8F#	.	.	.
iii7	4FF#	8G#	4B	8f#	8a
.	.	8A	.	8e	8g#
V	4AA	4B	8B	4e	4f#
.	.	.	8c#	.	.
V	4AA	4BB	8B	4d#	4f#
.	.	.	8A	.	.
=16	=16	=16	=16	=16	=16
I;	2.DD;	2.E;	2.G#;	2.B;	2.e;
==	==	==	==	==	==
*-	*-	*-	*-	*-	*-
!!chor2scor: -l 2 -s 0.6 -o %b.pmx
!!!YEC: Copyright 1994, David Huron
!!!YEC: Changes/Additions 2001 by Craig Stuart Sapp
!!!YEN: United States of America
!!!SMA: 371 Bach Chorales, edited by Ludwig Erk, C.F. Peters
!!!PDT: 1850, 1865
!!!ONB: Harmony and Root analysis done manually
